10/img/vectors/youtube.svg

<svg width="48" height="48" viewBox="0 0 48 48" fill="none" xmlns="http://www.w3.org/2000/svg">
<rect width="48" height="48" fill="#81B3D2"/>
<path d="M31.1813 17H16.8133C15.3062 17 14 18.3 14 19.8V28.1C14 29.7 15.3062 31 16.8133 31H31.1813C32.7889 31 33.9946 29.7 33.9946 28.2V19.8C34.095 18.3 32.7889 17 31.1813 17ZM21.0333 27.4V20.6L27.8656 24L21.0333 27.4Z" fill="white"/>
</svg>

<svg width="48" height="48" fill="none" xmlns="http://www.w3.org/2000/svg"><path fill="#81B3D2" d="M0 0h48v48H0z"/><path d="M31.181 17H16.813C15.306 17 14 18.3 14 19.8v8.3c0 1.6 1.306 2.9 2.813 2.9h14.368c1.608 0 2.814-1.3 2.814-2.8v-8.4c.1-1.5-1.206-2.8-2.814-2.8zM21.033 27.4v-6.8l6.833 3.4-6.833 3.4z" fill="#fff"/></svg>
